svgs/icons/sm/camper-van.svg

<svg xmlns="http://www.w3.org/2000/svg" viewBox="0 0 16 16" enable-background="new 0 0 16 16"><g fill="#34363D"><path d="M5 14c1.1 0 2-.9 2-2h-4c0 1.1.9 2 2 2zM13 14c1.1 0 2-.9 2-2h-4c0 1.1.9 2 2 2zM15 3.5c0-.8-.7-1.5-1.5-1.5h-5.5l-2 2h-4.8c-.7 0-1.2.5-1.2 1.2v4.8c0 .6.5 1 1 1h9v-6h5v-1.5zm-12 4.5h-1c-.6 0-1-.4-1-1s.4-1 1-1h1c.6 0 1 .4 1 1s-.4 1-1 1zm5 0h-2c-.6 0-1-.4-1-1s.4-1 1-1h2c.6 0 1 .4 1 1s-.4 1-1 1zM14 6h-3v5h5v-2l-2-3zm-.5 3h-1c-.3 0-.5-.2-.5-.5v-1c0-.3.2-.5.5-.5h.7c.5 0 .8.3.8.8v.7c0 .3-.2.5-.5.5z"/></g></svg>

<svg xmlns="http://www.w3.org/2000/svg" viewBox="0 0 16 16"><path d="M5 14c1.1 0 2-.9 2-2H3c0 1.1.9 2 2 2zm8 0c1.1 0 2-.9 2-2h-4c0 1.1.9 2 2 2zm2-10.5c0-.8-.7-1.5-1.5-1.5H8L6 4H1.2C.5 4 0 4.5 0 5.2V10c0 .6.5 1 1 1h9V5h5V3.5zM3 8H2c-.6 0-1-.4-1-1s.4-1 1-1h1c.6 0 1 .4 1 1s-.4 1-1 1zm5 0H6c-.6 0-1-.4-1-1s.4-1 1-1h2c.6 0 1 .4 1 1s-.4 1-1 1zm6-2h-3v5h5V9l-2-3zm-.5 3h-1c-.3 0-.5-.2-.5-.5v-1c0-.3.2-.5.5-.5h.7c.5 0 .8.3.8.8v.7c0 .3-.2.5-.5.5z" fill="#34363D"/></svg>
